dist/svgs/devui-icons/op/cut.svg

<svg xmlns="http://www.w3.org/2000/svg" viewBox="0 0 16 16"><path fill-rule="evenodd" d="M10 11v2H3V5H0V3h3V0h2v11h5zm1 5V5H6V3h7v8h3v2h-3v3h-2z"/></svg>

<?xml version="1.0" encoding="UTF-8"?>
<svg width="16px" height="16px" viewBox="0 0 16 16" version="1.1" xmlns="http://www.w3.org/2000/svg" xmlns:xlink="http://www.w3.org/1999/xlink">
    <title>操作/cut</title>
    <desc>Created with Sketch.</desc>
    <g id="操作/cut" stroke="none" stroke-width="1" fill="none" fill-rule="evenodd">
        <g id="cut" fill="#293040">
            <path d="M10,11 L10,13 L3,13 L3,5 L0,5 L0,3 L3,3 L3,0 L5,0 L5,11 L10,11 Z M11,16 L11,5 L6,5 L6,3 L13,3 L13,11 L16,11 L16,13 L13,13 L13,16 L11,16 Z" id="形状"></path>
        </g>
    </g>
</svg>
